X:337
T: KIND WO BIST DU HIN GEWESEN
N: E0190
O: Europa, Mitteleuropa, Deutschland, Bueckeburg
R: erzaehlendes Volks - Lied, Sage, Familien - Geschichte
M: 3/4
L: 1/8
K: F
CC | F2F2GB | A2F2
A2 | G3FEG | F2z2
C2 | F2F2GG | A2F2
A2 | G3FE2 | F2z2

